public/assets/routes_avatar/createADeclare.svg

<?xml version="1.0" encoding="UTF-8"?>
<svg width="60px" height="60px" viewBox="0 0 60 60" version="1.1" xmlns="http://www.w3.org/2000/svg" xmlns:xlink="http://www.w3.org/1999/xlink">
    <!-- Generator: Sketch 49.3 (51167) - http://www.bohemiancoding.com/sketch -->
    <title>纳税申报-创建申报</title>
    <desc>Created with Sketch.</desc>
    <defs>
        <path d="M23.33125,8.25234375 L14.65,0.582421875 C14.509375,0.459375 14.35625,0.35546875 14.190625,0.26796875 C14.146875,0.24609375 14.103125,0.22421875 14.05625,0.205078125 C14.028125,0.19140625 13.996875,0.18046875 13.96875,0.16953125 C13.6875,0.06015625 13.378125,0 13.0625,0 L2.28125,0 C1.0375,0 0,0.88046875 0,1.96875 L0,26.03125 C0,27.1195312 1.0375,28 2.28125,28 L21.75,28 C22.99375,28 23.96875,27.1195312 23.96875,26.03125 L23.96875,9.63867188 C23.96875,9.11914062 23.75,8.62148437 23.33125,8.25234375 Z M14.21875,3.01875 L20.49375,8.53125 L14.21875,8.53125 L14.21875,3.01875 Z M21.71875,26.03125 L2.25,26.03125 L2.25,1.96875 L11.96875,1.96875 L11.96875,8.53125 C11.96875,9.61953125 13.00625,10.5 14.25,10.5 L21.71875,10.5 L21.71875,26.03125 Z M14.25,13.234375 C14.25,12.6902344 13.746875,12.25 13.125,12.25 L5.125,12.25 C4.503125,12.25 4,12.6902344 4,13.234375 C4,13.7785156 4.503125,14.21875 5.125,14.21875 L13.125,14.21875 C13.746875,14.21875 14.25,13.7785156 14.25,13.234375 Z M20.25,17.609375 C20.25,17.0652344 19.746875,16.625 19.125,16.625 L5.125,16.625 C4.503125,16.625 4,17.0652344 4,17.609375 C4,18.1535156 4.503125,18.59375 5.125,18.59375 L19.125,18.59375 C19.746875,18.59375 20.25,18.1535156 20.25,17.609375 Z M16.25,21.984375 C16.25,21.4402344 15.746875,21 15.125,21 L5.125,21 C4.503125,21 4,21.4402344 4,21.984375 C4,22.5285156 4.503125,22.96875 5.125,22.96875 L15.125,22.96875 C15.746875,22.96875 16.25,22.5285156 16.25,21.984375 Z" id="path-1"></path>
        <path d="M22.1428571,22.1428571 L22.1428571,19.8571429 C22.1428571,19.3837559 22.5266131,19 23,19 C23.4733869,19 23.8571429,19.3837559 23.8571429,19.8571429 L23.8571429,22.1428571 L26.1428571,22.1428571 C26.6162441,22.1428571 27,22.5266131 27,23 C27,23.4733869 26.6162441,23.8571429 26.1428571,23.8571429 L23.8571429,23.8571429 L23.8571429,26.1428571 C23.8571429,26.6162441 23.4733869,27 23,27 C22.5266131,27 22.1428571,26.6162441 22.1428571,26.1428571 L22.1428571,23.8571429 L19.8571429,23.8571429 C19.3837559,23.8571429 19,23.4733869 19,23 C19,22.5266131 19.3837559,22.1428571 19.8571429,22.1428571 L22.1428571,22.1428571 Z" id="path-2"></path>
    </defs>
    <g id="icon" stroke="none" stroke-width="1" fill="none" fill-rule="evenodd">
        <g id="纳税申报-创建申报">
            <circle id="Oval-Copy" fill="#49A7FF" cx="30" cy="30" r="30"></circle>
            <g id="Group-58" transform="translate(15.000000, 15.000000)">
                <g id="Shape" fill-rule="nonzero">
                    <use fill="#FFFFFF" fill-rule="evenodd" xlink:href="#path-1"></use>
                    <path stroke="#49A7FF" stroke-width="0.3" d="M23.2320588,8.36486536 L23.231934,8.36475519 L14.5512243,0.695308379 C14.4212734,0.581601311 14.2782249,0.483894068 14.123543,0.402132829 C14.0612739,0.370998305 14.0339523,0.357996558 13.9906711,0.339983303 C13.9764503,0.333412818 13.9764503,0.333412818 13.9578228,0.325958934 C13.937501,0.318162732 13.937501,0.318162732 13.9143831,0.309331951 C13.6461513,0.205019613 13.3549591,0.15 13.0625,0.15 L2.28125,0.15 C1.10972686,0.15 0.15,0.973946296 0.15,1.96875 L0.15,26.03125 C0.15,27.0260537 1.10972686,27.85 2.28125,27.85 L21.75,27.85 C22.9085125,27.85 23.81875,27.0379559 23.81875,26.03125 L23.81875,9.63867188 C23.81875,9.15416299 23.6124083,8.70015476 23.2320588,8.36486536 Z M14.06875,2.68731713 L20.8917756,8.68125 L14.21875,8.68125 L14.06875,8.53125 L14.06875,2.68731713 Z M21.71875,26.18125 L2.25,26.18125 L2.1,26.03125 L2.1,1.96875 L2.25,1.81875 L11.96875,1.81875 L12.11875,1.96875 L12.11875,8.53125 C12.11875,9.5260537 13.0784769,10.35 14.25,10.35 L21.71875,10.35 L21.86875,10.5 L21.86875,26.03125 L21.71875,26.18125 Z M14.1,13.234375 C14.1,12.777863 13.6681565,12.4 13.125,12.4 L5.125,12.4 C4.58184345,12.4 4.15,12.777863 4.15,13.234375 C4.15,13.690887 4.58184345,14.06875 5.125,14.06875 L13.125,14.06875 C13.6681565,14.06875 14.1,13.690887 14.1,13.234375 Z M20.1,17.609375 C20.1,17.152863 19.6681565,16.775 19.125,16.775 L5.125,16.775 C4.58184345,16.775 4.15,17.152863 4.15,17.609375 C4.15,18.065887 4.58184345,18.44375 5.125,18.44375 L19.125,18.44375 C19.6681565,18.44375 20.1,18.065887 20.1,17.609375 Z M16.1,21.984375 C16.1,21.527863 15.6681565,21.15 15.125,21.15 L5.125,21.15 C4.58184345,21.15 4.15,21.527863 4.15,21.984375 C4.15,22.440887 4.58184345,22.81875 5.125,22.81875 L15.125,22.81875 C15.6681565,22.81875 16.1,22.440887 16.1,21.984375 Z"></path>
                </g>
                <circle id="Oval-2" fill="#49A7FF" cx="22.5" cy="22.5" r="7.5"></circle>
                <path d="M22.6923077,29.3846154 C18.9962482,29.3846154 16,26.3883672 16,22.6923077 C16,18.9962482 18.9962482,16 22.6923077,16 C26.3883672,16 29.3846154,18.9962482 29.3846154,22.6923077 C29.3846154,26.3883672 26.3883672,29.3846154 22.6923077,29.3846154 Z M22.6923077,28 C25.6236652,28 28,25.6236652 28,22.6923077 C28,19.7609502 25.6236652,17.3846154 22.6923077,17.3846154 C19.7609502,17.3846154 17.3846154,19.7609502 17.3846154,22.6923077 C17.3846154,25.6236652 19.7609502,28 22.6923077,28 Z" id="Oval-3" fill="#FFFFFF" fill-rule="nonzero"></path>
                <g id="Combined-Shape">
                    <use fill="#FFFFFF" fill-rule="evenodd" xlink:href="#path-2"></use>
                    <path stroke="#49A7FF" stroke-width="0.2" d="M22.2428571,22.1428571 L22.1428571,22.2428571 L19.8571429,22.2428571 C19.4389844,22.2428571 19.1,22.5818415 19.1,23 C19.1,23.4181585 19.4389844,23.7571429 19.8571429,23.7571429 L22.1428571,23.7571429 L22.2428571,23.8571429 L22.2428571,26.1428571 C22.2428571,26.5610156 22.5818415,26.9 23,26.9 C23.4181585,26.9 23.7571429,26.5610156 23.7571429,26.1428571 L23.7571429,23.8571429 L23.8571429,23.7571429 L26.1428571,23.7571429 C26.5610156,23.7571429 26.9,23.4181585 26.9,23 C26.9,22.5818415 26.5610156,22.2428571 26.1428571,22.2428571 L23.8571429,22.2428571 L23.7571429,22.1428571 L23.7571429,19.8571429 C23.7571429,19.4389844 23.4181585,19.1 23,19.1 C22.5818415,19.1 22.2428571,19.4389844 22.2428571,19.8571429 L22.2428571,22.1428571 Z"></path>
                </g>
            </g>
        </g>
    </g>
</svg>

<svg width="60" height="60" xmlns="http://www.w3.org/2000/svg" xmlns:xlink="http://www.w3.org/1999/xlink"><defs><path d="M23.331 8.252L14.65.582a2.385 2.385 0 0 0-.46-.314c-.043-.022-.087-.044-.134-.063-.028-.014-.06-.025-.087-.035a2.51 2.51 0 0 0-.906-.17H2.28C1.037 0 0 .88 0 1.969V26.03C0 27.12 1.038 28 2.281 28H21.75c1.244 0 2.219-.88 2.219-1.969V9.64c0-.52-.219-1.018-.638-1.387zM14.22 3.02l6.275 5.512h-6.275V3.02zm7.5 23.012H2.25V1.97h9.719V8.53c0 1.089 1.037 1.969 2.281 1.969h7.469v15.531zM14.25 13.234c0-.544-.503-.984-1.125-.984h-8c-.622 0-1.125.44-1.125.984 0 .545.503.985 1.125.985h8c.622 0 1.125-.44 1.125-.985zm6 4.375c0-.544-.503-.984-1.125-.984h-14c-.622 0-1.125.44-1.125.984 0 .545.503.985 1.125.985h14c.622 0 1.125-.44 1.125-.985zm-4 4.375c0-.544-.503-.984-1.125-.984h-10C4.503 21 4 21.44 4 21.984c0 .545.503.985 1.125.985h10c.622 0 1.125-.44 1.125-.985z" id="a"/><path d="M22.143 22.143v-2.286a.857.857 0 0 1 1.714 0v2.286h2.286a.857.857 0 0 1 0 1.714h-2.286v2.286a.857.857 0 0 1-1.714 0v-2.286h-2.286a.857.857 0 0 1 0-1.714h2.286z" id="b"/></defs><g fill="none" fill-rule="evenodd"><circle fill="#49A7FF" cx="30" cy="30" r="30"/><g transform="translate(15 15)"><g fill-rule="nonzero"><use fill="#FFF" fill-rule="evenodd" xlink:href="#a"/><path stroke="#49A7FF" stroke-width=".3" d="M23.232 8.365h0l-8.68-7.67A2.23 2.23 0 0 0 13.99.34l-.033-.014-.044-.017a2.36 2.36 0 0 0-.851-.159H2.28C1.11.15.15.974.15 1.969V26.03c0 .995.96 1.819 2.131 1.819H21.75c1.159 0 2.069-.812 2.069-1.819V9.64c0-.485-.207-.939-.587-1.274zM14.07 2.687l6.823 5.994h-6.673l-.15-.15V2.687zm7.65 23.494H2.25l-.15-.15V1.97l.15-.15h9.719l.15.15V8.53c0 .995.96 1.819 2.131 1.819h7.469l.15.15v15.531l-.15.15zM14.1 13.234c0-.456-.432-.834-.975-.834h-8c-.543 0-.975.378-.975.834 0 .457.432.835.975.835h8c.543 0 .975-.378.975-.835zm6 4.375c0-.456-.432-.834-.975-.834h-14c-.543 0-.975.378-.975.834 0 .457.432.835.975.835h14c.543 0 .975-.378.975-.835zm-4 4.375c0-.456-.432-.834-.975-.834h-10c-.543 0-.975.378-.975.834 0 .457.432.835.975.835h10c.543 0 .975-.378.975-.835z"/></g><circle fill="#49A7FF" cx="22.5" cy="22.5" r="7.5"/><path d="M22.692 29.385a6.692 6.692 0 1 1 0-13.385 6.692 6.692 0 0 1 0 13.385zm0-1.385a5.308 5.308 0 1 0 0-10.615 5.308 5.308 0 0 0 0 10.615z" fill="#FFF" fill-rule="nonzero"/><use fill="#FFF" xlink:href="#b"/><path stroke="#49A7FF" stroke-width=".2" d="M22.243 22.143l-.1.1h-2.286a.757.757 0 1 0 0 1.514h2.286l.1.1v2.286a.757.757 0 1 0 1.514 0v-2.286l.1-.1h2.286a.757.757 0 1 0 0-1.514h-2.286l-.1-.1v-2.286a.757.757 0 1 0-1.514 0v2.286z"/></g></g></svg>
